symbols-de/shields/motorway_7x4.svg

<?xml version="1.0" encoding="UTF-8" standalone="no"?>
<svg
   xmlns:dc="http://purl.org/dc/elements/1.1/"
   xmlns:cc="http://creativecommons.org/ns#"
   xmlns:rdf="http://www.w3.org/1999/02/22-rdf-syntax-ns#"
   xmlns:svg="http://www.w3.org/2000/svg"
   xmlns="http://www.w3.org/2000/svg"
   xmlns:sodipodi="http://sodipodi.sourceforge.net/DTD/sodipodi-0.dtd"
   xmlns:inkscape="http://www.inkscape.org/namespaces/inkscape"
   width="100%"
   height="100%"
   viewBox="0 0 51.0 42.0"
   id="svg2"
   version="1.1"
   inkscape:version="0.91 r13725"
   sodipodi:docname="autobahn_7x4.svg">
  <metadata
     id="metadata9">
    <rdf:RDF>
      <cc:Work
         rdf:about="">
        <dc:format>image/svg+xml</dc:format>
        <dc:type
           rdf:resource="http://purl.org/dc/dcmitype/StillImage" />
        <dc:title></dc:title>
      </cc:Work>
    </rdf:RDF>
  </metadata>
  <defs
     id="defs7" />
  <sodipodi:namedview
     pagecolor="#ffffff"
     bordercolor="#666666"
     borderopacity="1"
     objecttolerance="10"
     gridtolerance="10"
     guidetolerance="10"
     inkscape:pageopacity="0"
     inkscape:pageshadow="2"
     inkscape:window-width="1246"
     inkscape:window-height="876"
     id="namedview5"
     showgrid="false"
     inkscape:zoom="5.6190476"
     inkscape:cx="25.5"
     inkscape:cy="21"
     inkscape:window-x="461"
     inkscape:window-y="99"
     inkscape:window-maximized="0"
     inkscape:current-layer="svg2" />
  <path
     style="fill:#365eaf;fill-opacity:1;stroke:#0528a2;stroke-width:1;stroke-miterlimit:4;stroke-dasharray:none;stroke-opacity:1"
     d="m 25.500001,0.499998 c -0.358422,0 -0.53711,0.0033 -0.53711,0.01172 L 1.3075419,2.281249 C 0.7699073,2.366099 0.5,2.494362 0.5,2.664062 c 0,12.223958 0,24.447916 0,36.671875 0,0.169699 0.2699064,0.297965 0.8075419,0.382812 L 24.962891,41.48828 c 0,0.0085 0.178692,0.01172 0.53711,0.01172 0.358422,0 0.537109,-0.0033 0.537109,-0.01172 L 49.692459,39.718749 C 50.230095,39.633899 50.5,39.505636 50.5,39.335937 c 0,-12.223958 0,-24.447917 0,-36.671875 0,-0.1697 -0.269905,-0.297965 -0.807541,-0.382813 L 26.03711,0.511718 c 0,-0.0085 -0.178693,-0.01172 -0.537109,-0.01172 z"
     id="path6"
     inkscape:connector-curvature="0"
     sodipodi:nodetypes="sccccccsccccccs" />
</svg>

<?xml version="1.0" encoding="UTF-8"?>
<svg xmlns="http://www.w3.org/2000/svg" xmlns:xlink="http://www.w3.org/1999/xlink" width="53pt" height="54pt" viewBox="0 0 53 54" version="1.1">
<g id="surface1">
<path style="fill-rule:nonzero;fill:rgb(21.176471%,36.862745%,68.627451%);fill-opacity:1;stroke-width:1;stroke-linecap:butt;stroke-linejoin:miter;stroke:rgb(1.960784%,15.686275%,63.529412%);stroke-opacity:1;stroke-miterlimit:4;" d="M 25.5 0.501302 C 25.14291 0.501302 24.962485 0.50434 24.962485 0.510417 L 1.308078 2.281684 C 0.770563 2.366753 0.499926 2.494358 0.499926 2.664497 C 0.499926 14.887153 0.499926 27.112847 0.499926 39.335503 C 0.499926 39.505642 0.770563 39.633247 1.308078 39.718316 L 24.962485 41.489583 C 24.962485 41.49566 25.14291 41.498698 25.5 41.498698 C 25.85709 41.498698 26.037515 41.49566 26.037515 41.489583 L 49.691922 39.718316 C 50.229437 39.633247 50.500074 39.505642 50.500074 39.335503 C 50.500074 27.112847 50.500074 14.887153 50.500074 2.664497 C 50.500074 2.494358 50.229437 2.366753 49.691922 2.281684 L 26.037515 0.510417 C 26.037515 0.50434 25.85709 0.501302 25.5 0.501302 Z M 25.5 0.501302 " transform="matrix(1.039216,0,0,1.285714,0,0)"/>
</g>
</svg>
